applearcade.svg

<svg viewBox="0 0 24 24" xmlns="http://www.w3.org/2000/svg"><defs><linearGradient gradientTransform="matrix(1.14286 0 0 1.14286 0 0.583336)" gradientUnits="userSpaceOnUse" id="LinearGradient" x1="10.5" x2="10.5" y1="0" y2="19.9792"><stop offset="0" stop-color="#ff7355"/><stop offset="1" stop-color="#ff2d69"/></linearGradient></defs><path d="M12 0.583336C13.84 0.583336 15.3337 2.11362 15.3337 4.00048C15.3337 5.88734 13.84 7.41762 12 7.41762C10.16 7.41762 8.66629 5.88734 8.66629 4.00048C8.66629 2.11362 10.16 0.583336 12 0.583336ZM3.50857 13.2096C2.82629 13.5993 2.832 14.2336 3.51771 14.6245C4.20343 15.0142 5.30857 15.0142 5.99086 14.6245C6.672 14.2336 6.66971 13.5993 5.984 13.2096C5.29714 12.8188 4.18971 12.8188 3.50743 13.2096L3.50857 13.2096ZM22.3897 15.4359L15.4023 18.6736C14.2891 19.1731 13.3131 19.4165 11.9954 19.4165C10.8219 19.4195 9.66186 19.166 8.59657 18.6736L1.60914 15.4359C1.01029 15.1456 0 14.6588 0 13.8679C0 13.0748 1.02857 12.5765 1.60914 12.2999L8.59657 9.07705C9.2951 8.75945 10.035 8.54207 10.7943 8.43134L10.7943 14.0656C10.7943 14.6028 11.3337 14.9605 12.0023 14.9605C12.6686 14.9605 13.2091 14.6096 13.2091 14.0668L13.2091 8.41648C13.9726 8.52505 14.6583 8.74219 15.4023 9.07705L22.3897 12.2999C22.9703 12.5765 24 13.0748 24 13.8679C24 14.6588 22.9886 15.1456 22.3897 15.4359ZM15.824 22.4725C14.3874 23.1468 13.4126 23.4165 12.0046 23.4165C10.829 23.4246 9.66677 23.1671 8.60457 22.6633C7.84 22.3102 2.32 19.7365 1.60914 19.3902C0.712001 18.9536 0.388572 18.6645 0.196572 18.3936C0.0738764 18.2201 0.00546165 18.0141 1.74513e-08 17.8016L1.74513e-08 16.8096C1.74513e-08 16.8096 1.74513e-08 16.2199 0.56 16.4862C0.56 16.4862 7.68457 19.8199 8.59657 20.2439C9.55543 20.6896 10.6766 20.9982 11.9954 20.9982C13.3131 20.9982 14.2891 20.7513 15.4011 20.2439C16.5154 19.7353 23.44 16.4862 23.44 16.4862C24 16.2199 24 16.8096 24 16.8096L24 17.8016C23.9963 18.0133 23.9276 18.2187 23.8034 18.3902C23.5634 18.7136 23.2926 18.9433 22.3897 19.3879C21.6731 19.7422 17.2583 21.7948 15.824 22.4725Z" fill="url(#LinearGradient)"/></svg>

<svg viewBox="0 0 24 24" xmlns="http://www.w3.org/2000/svg"><defs><linearGradient gradientTransform="translate(0 .583) scale(1.14286)" gradientUnits="userSpaceOnUse" id="a" x1="10.5" x2="10.5" y1="0" y2="19.979"><stop offset="0" stop-color="#ff7355"/><stop offset="1" stop-color="#ff2d69"/></linearGradient></defs><path d="M12 .583c1.84 0 3.334 1.53 3.334 3.417 0 1.887-1.494 3.418-3.334 3.418S8.666 5.888 8.666 4C8.666 2.114 10.16.583 12 .583ZM3.509 13.21c-.683.39-.677 1.024.009 1.414.685.39 1.79.39 2.473 0 .681-.39.679-1.025-.007-1.414-.687-.391-1.794-.391-2.477 0h.002Zm18.88 2.226-6.987 3.238c-1.113.5-2.089.742-3.407.742a8.052 8.052 0 0 1-3.398-.742l-6.988-3.238C1.01 15.146 0 14.659 0 13.868c0-.793 1.029-1.292 1.61-1.568l6.987-3.223a8.152 8.152 0 0 1 2.197-.646v5.635c0 .537.54.894 1.208.894.667 0 1.207-.35 1.207-.893v-5.65c.764.108 1.45.325 2.193.66L22.39 12.3c.58.276 1.61.775 1.61 1.568 0 .79-1.011 1.278-1.61 1.568Zm-6.565 7.037c-1.437.674-2.411.944-3.82.944a7.808 7.808 0 0 1-3.4-.754C7.84 22.31 2.32 19.736 1.61 19.39c-.897-.436-1.22-.726-1.412-.996A1.073 1.073 0 0 1 0 17.802v-.992s0-.59.56-.324c0 0 7.125 3.334 8.037 3.758.958.446 2.08.754 3.398.754s2.294-.247 3.406-.754c1.114-.509 8.039-3.758 8.039-3.758.56-.266.56.324.56.324v.992a1.034 1.034 0 0 1-.197.588c-.24.324-.51.553-1.413.998-.717.354-5.132 2.407-6.566 3.084Z" fill="url(#a)"/></svg>
